assets/images/logo-inline.svg

<?xml version="1.0" encoding="UTF-8" standalone="no"?>
<svg width="154px" height="41px" viewBox="0 0 154 41" version="1.1" xmlns="http://www.w3.org/2000/svg" xmlns:xlink="http://www.w3.org/1999/xlink">
    <!-- Generator: Sketch 3.8.3 (29802) - http://www.bohemiancoding.com/sketch -->
    <title>logo-inline</title>
    <desc>Created with Sketch.</desc>
    <defs></defs>
    <g id="Page-1" stroke="none" stroke-width="1" fill="none" fill-rule="evenodd">
        <g id="logo-inline" fill="#221F20">
            <path d="M3.61159153,0.043205949 L0.0256024096,3.1442518 L0.0256024096,3.49479063 L0,3.51843162 L0.0256024096,3.77766732 L0.0256024096,40.9706526 L30.2967353,40.9706526 L30.5511077,41 L30.5816654,40.9706526 L30.9450544,40.9706526 L34,37.8255856 L34,0 L3.61159153,0.043205949 Z M4.05591722,0.996182447 L17.3369607,0.970911043 L14.8725223,3.1442518 L1.7649145,3.14506701 L4.05591722,0.996182447 Z M18.6732414,1.05895335 L32.2276525,1.08259435 L29.8094637,3.1442518 L16.2178877,3.15077345 L18.6732414,1.05895335 Z M30.9450544,4.00429475 L32.9428682,2.08203762 L32.9428682,7.71511512 L30.9450544,9.63818746 L30.9450544,4.00429475 Z M16.0981345,4.35320317 L29.7202682,4.35320317 L29.7202682,10.4672526 L23.5211815,10.4672526 L16.0981345,10.4672526 L16.0981345,4.35320317 Z M1.25038865,4.35320317 L14.8725223,4.35320317 L14.8725223,10.4672526 L7.44864944,10.4672526 L1.25038865,10.4672526 L1.25038865,4.35320317 Z M30.9450544,11.3281107 L32.9428682,9.40422317 L32.9428682,15.0381159 L30.9450544,16.9620034 L30.9450544,11.3281107 Z M23.5211815,17.7910685 L29.7194423,17.7910685 L29.7194423,11.6778343 L23.5211815,11.6778343 L23.5211815,17.7910685 Z M8.67426156,17.7910685 L22.2955694,17.7910685 L22.2955694,11.6778343 L8.67426156,11.6778343 L8.67426156,17.7910685 Z M1.25038865,17.7910685 L7.44864944,17.7910685 L7.44864944,11.6778343 L1.25038865,11.6778343 L1.25038865,17.7910685 Z M30.9450544,18.6511115 L32.9428682,16.7280391 L32.9428682,22.3619318 L30.9450544,24.284189 L30.9450544,18.6511115 Z M16.0981345,19.0008351 L23.5211815,19.0008351 L29.7202682,19.0008351 L29.7202682,25.1140693 L23.5211815,25.1140693 L16.0981345,25.1140693 L16.0981345,19.0008351 Z M1.25038865,19.0008351 L7.44864944,19.0008351 L14.8725223,19.0008351 L14.8725223,25.1140693 L7.44864944,25.1140693 L1.25038865,25.1140693 L1.25038865,19.0008351 Z M30.9450544,25.973297 L32.9428682,24.0510399 L32.9428682,29.6849326 L30.9450544,31.6071897 L30.9450544,25.973297 Z M23.5211815,32.4378852 L29.7194423,32.4378852 L29.7194423,26.3238358 L23.5211815,26.3238358 L23.5211815,32.4378852 Z M8.67426156,32.4378852 L22.2955694,32.4378852 L22.2955694,26.3238358 L8.67426156,26.3238358 L8.67426156,32.4378852 Z M1.25038865,32.4378852 L7.44864944,32.4378852 L7.44864944,26.3238358 L1.25038865,26.3238358 L1.25038865,32.4378852 Z M30.9450544,33.297113 L32.9428682,31.3748558 L32.9428682,37.357657 L30.9450544,39.2807293 L30.9450544,33.297113 Z M16.0981345,33.6468366 L23.5211815,33.6468366 L29.7202682,33.6468366 L29.7202682,39.760886 L16.0981345,39.760886 L16.0981345,33.6468366 Z M1.25038865,33.6468366 L7.44864944,33.6468366 L14.8725223,33.6468366 L14.8725223,39.760886 L1.25038865,39.760886 L1.25038865,33.6468366 Z" id="Fill-1"></path>
            <text id="Festi" font-family="Poppins" font-size="22.3708327" font-weight="bold" letter-spacing="-0.530642271">
                <tspan x="50" y="29">Festi</tspan>
            </text>
            <text id="Wall" font-family="Poppins" font-size="22.3708327" font-weight="bold" letter-spacing="-0.530642271">
                <tspan x="104" y="29">Wall</tspan>
            </text>
        </g>
    </g>
</svg>

<svg width="154" height="41" viewBox="0 0 154 41" xmlns="http://www.w3.org/2000/svg"><title>logo-inline</title><g fill="#221F20" fill-rule="evenodd"><path d="M3.612.043L.026 3.144v.35L0 3.519l.026.26V40.97h30.27l.255.029.03-.03h.364L34 37.827V0L3.612.043zm.444.953L17.337.971l-2.464 2.173-13.108.001L4.055.996zm14.617.063l13.555.024-2.419 2.061-13.591.007 2.455-2.092zm12.272 2.945l1.998-1.922v5.633l-1.998 1.923V4.004zm-14.847.35H29.72v6.113H16.098V4.353zm-14.848 0h13.623v6.113H1.25V4.353zm29.695 6.974l1.998-1.924v5.634l-1.998 1.924v-5.634zm-7.424 6.463h6.198v-6.113h-6.198v6.113zm-14.847 0h13.622v-6.113H8.674v6.113zm-7.424 0H7.45v-6.113H1.25v6.113zm29.695.86l1.998-1.923v5.634l-1.998 1.922v-5.633zm-14.847.35H29.721v6.113H16.097v-6.113zM1.25 19H14.873v6.113H1.25v-6.113zm29.695 6.972l1.998-1.922v5.634l-1.998 1.922v-5.634zm-7.424 6.465h6.198v-6.114h-6.198v6.114zm-14.847 0h13.622v-6.114H8.674v6.114zm-7.424 0H7.45v-6.114H1.25v6.114zm29.695.86l1.998-1.923v5.983l-1.998 1.923v-5.984zm-14.847.349H29.721v6.114H16.097v-6.114zm-14.848 0H14.873v6.114H1.25v-6.114z"/><text font-family="Poppins" font-size="22.371" font-weight="bold" letter-spacing="-.531"><tspan x="50" y="29">Festi</tspan></text><text font-family="Poppins" font-size="22.371" font-weight="bold" letter-spacing="-.531"><tspan x="104" y="29">Wall</tspan></text></g></svg>
